X:1
T:Title
%%score 1 2
L:1/8
Q:1/4=60
M:2/4
K:Bb
V:1 treble nm="Grand Piano, Treble"
V:2 bass nm="Grand Piano, Bass"
V:1
 FG FD | FG FD | FG Ac | cB B2 | FG FD | FG FD | FG Ac | cB B2 | [GB]>[GB] [FA][EG]/[EG]/ | [DF]4 | %10
w: 1.~Hear~ the~ bless ed~|Sav ior~ say ing,~|"Let~ the~ child ren~|come~ to~ Me"!~|Joy ful ly~ He~|will~ re ceive~ them,~|And~ their~ Friend~ for|ev er~ be.~|||
 [DF]>[CE] [CE][EG] | [EG][DF] [DF]2 | [GB]>[GB] [FA][EG]/[EG]/ | [DF]4 | [EF][EG] [EA][Ec] | %15
w: |||||
 [Ec][DB] [DB]2 |] %16
w: |
V:2
 .B,,2 .[F,B,D]2 | .B,,2 .[F,B,D]2 | .[F,,F,]2 .[F,A,E]2 | .B,,2 [F,B,D][F,B,D] | .B,,2 .[F,B,D]2 | %5
 .B,,2 .[F,B,D]2 | .[F,,F,]2 .[F,A,E]2 | .B,,2 [F,B,D][F,_A,B,D] | .[E,,E,]2 .[G,B,E]2 | %9
 B,,F, B,F, | .[F,,F,]2 .[E,F,A,]2 | [B,,B,]2- [B,,B,]/F,/D,/B,,/ | .[E,,E,]2 .[G,B,E]2 | %13
 B,,F, B,F, | .[F,,F,]2 .[F,A,C]2 | [B,,B,]4 |] %16

